svg/fluentui-system-icons/ic_fluent_organization_horizontal_20_regular.svg

<svg width="20" height="20" viewBox="0 0 20 20" fill="none" xmlns="http://www.w3.org/2000/svg">
<path d="M2 9.99943C2 11.6567 3.34344 13.0001 5.00066 13.0001C6.48754 13.0001 7.72183 11.9186 7.95985 10.4994H9.5V13.4994C9.5 14.3278 10.1716 14.9994 11 14.9994H12.0416C12.2799 16.4183 13.514 17.4994 15.0007 17.4994C16.6579 17.4994 18.0013 16.1559 18.0013 14.4987C18.0013 12.8415 16.6579 11.498 15.0007 11.498C13.5136 11.498 12.2791 12.5798 12.0414 13.9994H11C10.7239 13.9994 10.5 13.7755 10.5 13.4994V6.49936C10.5 6.22322 10.7239 5.99936 11 5.99936H12.0416C12.2799 7.41826 13.514 8.49936 15.0007 8.49936C16.6579 8.49936 18.0013 7.15592 18.0013 5.4987C18.0013 3.84149 16.6579 2.49805 15.0007 2.49805C13.5136 2.49805 12.2791 3.57982 12.0414 4.99936H11C10.1716 4.99936 9.5 5.67093 9.5 6.49936V9.49937H7.95983C7.72176 8.08018 6.48749 6.99878 5.00066 6.99878C3.34344 6.99878 2 8.34222 2 9.99943ZM5.00066 12.0001C3.89572 12.0001 3 11.1044 3 9.99943C3 8.8945 3.89572 7.99878 5.00066 7.99878C6.10559 7.99878 7.00131 8.8945 7.00131 9.99943C7.00131 11.1044 6.10559 12.0001 5.00066 12.0001ZM15.0007 16.4994C13.8957 16.4994 13 15.6036 13 14.4987C13 13.3938 13.8957 12.498 15.0007 12.498C16.1056 12.498 17.0013 13.3938 17.0013 14.4987C17.0013 15.6036 16.1056 16.4994 15.0007 16.4994ZM13 5.4987C13 4.39377 13.8957 3.49805 15.0007 3.49805C16.1056 3.49805 17.0013 4.39377 17.0013 5.4987C17.0013 6.60363 16.1056 7.49936 15.0007 7.49936C13.8957 7.49936 13 6.60363 13 5.4987Z" fill="#212121"/>
</svg>

<svg xmlns="http://www.w3.org/2000/svg" width="20" height="20"><path d="M2 10a3 3 0 0 0 5.96.5H9.5v3A1.5 1.5 0 0 0 11 15h1.042a3.001 3.001 0 1 0 0-1H11a.5.5 0 0 1-.5-.5v-7A.5.5 0 0 1 11 6h1.042a3.001 3.001 0 1 0 0-1H11a1.5 1.5 0 0 0-1.5 1.5v3H7.96A3.001 3.001 0 0 0 2 10Zm3 2a2 2 0 1 1 0-4 2 2 0 0 1 0 4Zm10 4.5a2 2 0 1 1 0-4.002 2 2 0 0 1 0 4.001ZM13 5.498a2 2 0 1 1 4.001 0 2 2 0 0 1-4.001 0Z"/></svg>
